public/assets/techs/typescript.svg

<svg width="20" height="20" viewBox="0 0 20 20" fill="none" xmlns="http://www.w3.org/2000/svg">
<path d="M14.8919 5.15188C15.4239 5.27566 15.9074 5.55425 16.2813 5.95251C16.4872 6.16804 16.666 6.40795 16.8138 6.66688C16.8206 6.69501 15.855 7.34376 15.2694 7.70563C15.2481 7.72001 15.1638 7.62813 15.0681 7.48688C14.9611 7.30299 14.8093 7.14921 14.6268 7.03991C14.4442 6.93062 14.237 6.86936 14.0244 6.86188C13.3513 6.81563 12.9175 7.16813 12.9206 7.75751C12.9148 7.9023 12.9478 8.04602 13.0163 8.17376C13.1644 8.48001 13.4394 8.66376 14.3031 9.03813C15.8931 9.72251 16.5756 10.1738 16.9969 10.815C17.235 11.2202 17.3816 11.6725 17.4266 12.1403C17.4715 12.6081 17.4136 13.0801 17.2569 13.5231C17.0416 14.009 16.7001 14.4284 16.268 14.7378C15.8358 15.0472 15.3287 15.2353 14.7994 15.2825C14.2367 15.3471 13.6681 15.3412 13.1069 15.265C12.2472 15.1237 11.4552 14.7111 10.8469 14.0875C10.617 13.8287 10.4224 13.5405 10.2681 13.2306C10.333 13.1824 10.4013 13.1389 10.4725 13.1006C10.5713 13.0444 10.945 12.8294 11.2975 12.625L11.9375 12.25L12.0713 12.445C12.2965 12.7672 12.5833 13.0416 12.915 13.2525C13.25 13.4363 13.6295 13.5233 14.0111 13.504C14.3927 13.4847 14.7615 13.3598 15.0763 13.1431C15.2386 12.9849 15.3401 12.7745 15.363 12.549C15.3858 12.3234 15.3286 12.097 15.2013 11.9094C15.0288 11.6625 14.6763 11.455 13.6744 11.0206C12.8888 10.7557 12.1732 10.3167 11.5813 9.73626C11.2993 9.41498 11.0911 9.03591 10.9713 8.62563C10.8826 8.15824 10.8695 7.67966 10.9325 7.20813C11.0501 6.66553 11.3317 6.17221 11.7391 5.795C12.1465 5.4178 12.66 5.17496 13.21 5.09938C13.7701 5.03245 14.3371 5.05015 14.8919 5.15188ZM9.6775 6.07876L9.68438 6.98751H6.79063V15.205H4.75V6.98938H1.85625V6.09688C1.84856 5.79124 1.8569 5.4854 1.88125 5.18063C1.89188 5.16626 3.65125 5.15938 5.78438 5.16313L9.66625 5.17376L9.6775 6.07876Z" fill="#EEEEEE"/>
</svg>

<svg xmlns="http://www.w3.org/2000/svg" width="20" height="20" fill="none" xmlns:v="https://vecta.io/nano"><path d="M14.892 5.152c.532.124 1.016.402 1.389.801.206.216.385.455.532.714.007.028-.959.677-1.544 1.039-.021.014-.106-.078-.201-.219a1.26 1.26 0 0 0-1.044-.625c-.673-.046-1.107.306-1.104.896a.81.81 0 0 0 .096.416c.148.306.423.49 1.287.864 1.59.684 2.273 1.136 2.694 1.777.238.405.385.857.43 1.325s-.013.94-.17 1.383a2.98 2.98 0 0 1-.989 1.215c-.432.309-.939.498-1.469.545a6.81 6.81 0 0 1-1.693-.018 4.08 4.08 0 0 1-2.26-1.178c-.23-.259-.425-.547-.579-.857a1.67 1.67 0 0 1 .204-.13l.825-.476.64-.375.134.195a2.98 2.98 0 0 0 .844.807 2.06 2.06 0 0 0 2.161-.109c.162-.158.264-.369.287-.594s-.034-.452-.162-.64c-.172-.247-.525-.454-1.527-.889a5.5 5.5 0 0 1-2.093-1.284c-.282-.321-.49-.7-.61-1.111-.089-.467-.102-.946-.039-1.417.118-.543.399-1.036.807-1.413a2.71 2.71 0 0 1 1.471-.696c.56-.067 1.127-.049 1.682.053zm-5.214.927l.007.909H6.791v8.217H4.75V6.989H1.856v-.893c-.008-.306.001-.611.025-.916.011-.014 1.77-.021 3.903-.018l3.882.011.011.905z" fill="#2d79c7"/></svg>
